icons/filled/brand-windows.svg

<svg xmlns="http://www.w3.org/2000/svg" width="24" height="24" viewBox="0 0 24 24" fill="currentColor"><path d="M21 13v5c0 1.57 -1.248 2.832 -2.715 2.923l-.113 .003l-.042 .018a1 1 0 0 1 -.336 .056l-.118 -.008l-4.676 -.585v-7.407zm-10 0v7.157l-5.3 -.662c-1.514 -.151 -2.7 -1.383 -2.7 -2.895v-3.6zm0 -9.158v7.158h-8v-3.6c0 -1.454 1.096 -2.648 2.505 -2.87zm10 2.058v5.1h-8v-7.409l4.717 -.589c1.759 -.145 3.283 1.189 3.283 2.898"/></svg>

<svg xmlns="http://www.w3.org/2000/svg" width="24" height="24" fill="currentColor"><path d="M21 13v5c0 1.57-1.248 2.832-2.715 2.923l-.113.003-.042.018a1 1 0 0 1-.336.056l-.118-.008L13 20.407V13zm-10 0v7.157l-5.3-.662C4.186 19.344 3 18.112 3 16.6V13zm0-9.158V11H3V7.4c0-1.454 1.096-2.648 2.505-2.87zM21 5.9V11h-8V3.591l4.717-.589C19.476 2.857 21 4.191 21 5.9"/></svg>
